images/icons/social/drible.svg

<svg width="30" height="30" viewBox="0 0 30 30" fill="none" xmlns="http://www.w3.org/2000/svg">
<path fill-rule="evenodd" clip-rule="evenodd" d="M15 28.75C7.40608 28.75 1.25 22.5939 1.25 15C1.25 7.40608 7.40608 1.25 15 1.25C22.5939 1.25 28.75 7.40608 28.75 15C28.75 22.5939 22.5939 28.75 15 28.75ZM26.0847 16.9322C23.6679 16.3707 21.4082 16.2263 19.2985 16.5021C20.3498 19.0962 21.115 21.6342 21.5932 24.1165C23.9191 22.4314 25.5748 19.8782 26.0847 16.9322ZM19.2848 25.4053C18.836 22.7049 18.014 19.9168 16.8174 17.0415C13.4582 18.0806 10.5181 20.321 7.96281 23.7778C9.88972 25.3246 12.3368 26.25 15 26.25C16.5171 26.25 17.9641 25.9497 19.2848 25.4053ZM6.18172 21.9864C8.93956 18.3598 12.1524 15.9416 15.7907 14.7449C15.5561 14.2535 15.3108 13.7595 15.055 13.2632C14.4089 13.4357 13.7392 13.5847 13.0466 13.7113C10.2583 14.2211 7.84137 14.3204 3.92122 14.2643C3.86979 14.2636 3.8207 14.2629 3.77381 14.2622C3.75802 14.5061 3.75 14.7521 3.75 15C3.75 17.6399 4.65927 20.0674 6.18172 21.9864ZM4.22112 11.7681C5.11311 8.78892 7.20653 6.32872 9.93887 4.95001C11.3974 7.00296 12.6916 9.01827 13.822 10.9958C13.4246 11.0901 13.0162 11.1755 12.597 11.2521C10.075 11.7132 7.83123 11.8138 4.22112 11.7681ZM12.3694 4.05923C13.8326 6.15369 15.1329 8.21574 16.27 10.2455C18.6659 9.319 20.5257 7.94203 21.7929 6.03156C19.9054 4.59968 17.5519 3.75 15 3.75C14.0941 3.75 13.2133 3.85706 12.3694 4.05923ZM23.6264 7.77819C25.1449 9.59017 26.1032 11.8877 26.2345 14.4041C23.4069 13.7947 20.7477 13.7048 18.2651 14.1306C18.0079 13.5786 17.738 13.024 17.4556 12.467C20.0317 11.4245 22.1175 9.89355 23.6264 7.77819Z" fill="white"/>
</svg>

<svg width="30" height="30" fill="none" xmlns="http://www.w3.org/2000/svg"><path fill-rule="evenodd" clip-rule="evenodd" d="M15 28.75C7.406 28.75 1.25 22.594 1.25 15S7.406 1.25 15 1.25 28.75 7.406 28.75 15 22.594 28.75 15 28.75zm11.085-11.818c-2.417-.561-4.677-.706-6.787-.43 1.052 2.594 1.817 5.132 2.295 7.614a11.25 11.25 0 004.492-7.184zm-6.8 8.473c-.449-2.7-1.271-5.488-2.468-8.364-3.359 1.04-6.299 3.28-8.854 6.737A11.203 11.203 0 0015 26.25c1.517 0 2.964-.3 4.285-.845zM6.182 21.986c2.758-3.626 5.97-6.044 9.609-7.241-.235-.491-.48-.986-.736-1.482-.646.173-1.316.322-2.008.448-2.789.51-5.206.61-9.126.553l-.147-.002a11.202 11.202 0 002.408 7.724zm-1.96-10.218A11.28 11.28 0 019.938 4.95a73.13 73.13 0 013.883 6.046c-.397.094-.806.18-1.225.256-2.522.461-4.766.562-8.376.516zm8.147-7.709a73.877 73.877 0 013.901 6.186c2.396-.926 4.256-2.303 5.523-4.213A11.2 11.2 0 0015 3.75c-.906 0-1.787.107-2.63.31zm11.257 3.72a11.2 11.2 0 012.608 6.625c-2.827-.61-5.486-.7-7.969-.273a55.734 55.734 0 00-.81-1.664c2.577-1.043 4.663-2.573 6.171-4.689z" fill="#fff"/></svg>
